images/benefits-3.svg

<svg width="41" height="62" viewBox="0 0 41 62" fill="none" xmlns="http://www.w3.org/2000/svg">
<path fill-rule="evenodd" clip-rule="evenodd" d="M9.10004 3.42981L14.3934 1.39786L17.78 10.2202L12.4866 12.2521L9.10004 3.42981Z" fill="#00CCCC" stroke="#173753" stroke-width="2.722" stroke-linecap="round" stroke-linejoin="round"/>
<path fill-rule="evenodd" clip-rule="evenodd" d="M21.278 9.53101C29.42 9.53101 36.02 16.131 36.02 24.273C36.02 26.287 35.616 28.206 34.885 29.955L32.401 51.76C31.878 56.343 28 59.805 23.387 59.805H18.035C13.422 59.805 9.54401 56.343 9.02101 51.76L6.53601 29.943H7.66601C6.93801 28.198 6.53601 26.283 6.53601 24.273C6.53601 16.131 13.136 9.53101 21.278 9.53101Z" fill="#E5F9F9" stroke="#0F2336" stroke-width="2.722" stroke-linecap="round" stroke-linejoin="round"/>
<path fill-rule="evenodd" clip-rule="evenodd" d="M23.557 42.543C27.334 45.059 30.647 46.476 33.498 46.795L33.029 51.479C32.524 56.529 28.274 60.375 23.199 60.375H18.069C12.994 60.375 8.74402 56.529 8.23902 51.479L7.24902 41.597C12.297 38.347 17.733 38.662 23.557 42.543Z" fill="#00C9C9"/>
<path fill-rule="evenodd" clip-rule="evenodd" d="M21.278 9.53101C29.42 9.53101 36.02 16.131 36.02 24.273C36.02 26.287 35.616 28.206 34.885 29.955L32.401 51.76C31.878 56.343 28 59.805 23.387 59.805H18.035C13.422 59.805 9.54401 56.343 9.02101 51.76L6.53601 29.943H7.66601C6.93801 28.198 6.53601 26.283 6.53601 24.273C6.53601 16.131 13.136 9.53101 21.278 9.53101V9.53101Z" stroke="#173753" stroke-width="2.722" stroke-linecap="round" stroke-linejoin="round"/>
<path d="M36.587 23.139H4.835C3.26927 23.139 2 24.4083 2 25.974V27.108C2 28.6738 3.26927 29.943 4.835 29.943H36.587C38.1527 29.943 39.422 28.6738 39.422 27.108V25.974C39.422 24.4083 38.1527 23.139 36.587 23.139Z" fill="#E5F9F9" stroke="#173753" stroke-width="2.722" stroke-linecap="round" stroke-linejoin="round"/>
</svg>

<svg width="41" height="62" fill="none" xmlns="http://www.w3.org/2000/svg"><path fill-rule="evenodd" clip-rule="evenodd" d="M9.1 3.43l5.293-2.032 3.387 8.822-5.293 2.032L9.1 3.43z" fill="#0CC" stroke="#173753" stroke-width="2.722" stroke-linecap="round" stroke-linejoin="round"/><path fill-rule="evenodd" clip-rule="evenodd" d="M21.278 9.531c8.142 0 14.742 6.6 14.742 14.742 0 2.014-.404 3.933-1.135 5.682L32.401 51.76a9.073 9.073 0 01-9.014 8.045h-5.352a9.073 9.073 0 01-9.014-8.045L6.536 29.943h1.13a14.69 14.69 0 01-1.13-5.67c0-8.142 6.6-14.742 14.742-14.742z" fill="#E5F9F9" stroke="#0F2336" stroke-width="2.722" stroke-linecap="round" stroke-linejoin="round"/><path fill-rule="evenodd" clip-rule="evenodd" d="M23.557 42.543c3.777 2.516 7.09 3.933 9.941 4.252l-.469 4.684a9.88 9.88 0 01-9.83 8.896h-5.13a9.88 9.88 0 01-9.83-8.896l-.99-9.882c5.048-3.25 10.484-2.935 16.308.946z" fill="#00C9C9"/><path clip-rule="evenodd" d="M21.278 9.531c8.142 0 14.742 6.6 14.742 14.742 0 2.014-.404 3.933-1.135 5.682L32.401 51.76a9.073 9.073 0 01-9.014 8.045h-5.352a9.073 9.073 0 01-9.014-8.045L6.536 29.943h1.13a14.69 14.69 0 01-1.13-5.67c0-8.142 6.6-14.742 14.742-14.742v0z" stroke="#173753" stroke-width="2.722" stroke-linecap="round" stroke-linejoin="round"/><path d="M36.587 23.139H4.835A2.835 2.835 0 002 25.974v1.134a2.835 2.835 0 002.835 2.835h31.752a2.835 2.835 0 002.835-2.835v-1.134a2.835 2.835 0 00-2.835-2.835z" fill="#E5F9F9" stroke="#173753" stroke-width="2.722" stroke-linecap="round" stroke-linejoin="round"/></svg>
